src/assets/images/icon-linkedin.svg

<svg height="80" viewBox="0 0 80 80" width="80" xmlns="http://www.w3.org/2000/svg"><path d="m62.4493333 58.8493333v-15.616c0-8.3666666-4.4666666-12.26-10.4213333-12.26-4.8053333 0-6.9586667 2.644-8.1586667 4.4986667v-3.8586667h-9.0533333c.12 2.556 0 27.236 0 27.236h9.0533333v-15.2106666c0-.812.0586667-1.6253334.2986667-2.2066667.6533333-1.6266667 2.1426667-3.3106667 4.6426667-3.3106667 3.2773333 0 4.5866666 2.4973334 4.5866666 6.1573334v14.572h9.052zm-37.1706666-30.9533333c3.156 0 5.1226666-2.0933333 5.1226666-4.708-.0586666-2.6706667-1.9666666-4.704-5.0626666-4.704s-5.1213334 2.032-5.1213334 4.704c0 2.6146667 1.9653334 4.708 5.004 4.708zm14.7213333 52.104c-22.0906667 0-40-17.9093333-40-40 0-22.092 17.9093333-40 40-40s40 17.908 40 40c0 22.0906667-17.9093333 40-40 40zm-10.1946667-21.1506667v-27.236h-9.052v27.236z" fill="#007ab9" fill-rule="evenodd"/></svg>

<?xml version="1.0" encoding="UTF-8"?>
<svg width="80px" height="80px" viewBox="0 0 80 80" version="1.1" xmlns="http://www.w3.org/2000/svg" xmlns:xlink="http://www.w3.org/1999/xlink">
    <!-- Generator: Sketch 51.2 (57519) - http://www.bohemiancoding.com/sketch -->
    <title>if_linkedin_circle_color_107178</title>
    <desc>Created with Sketch.</desc>
    <defs></defs>
    <g id="Page-1" stroke="none" stroke-width="1" fill="none" fill-rule="evenodd">
        <g id="if_linkedin_circle_color_107178" fill="#007AB9">
            <path d="M62.4493333,58.8493333 L62.4493333,43.2333333 C62.4493333,34.8666667 57.9826667,30.9733333 52.028,30.9733333 C47.2226667,30.9733333 45.0693333,33.6173333 43.8693333,35.472 L43.8693333,31.6133333 L34.816,31.6133333 C34.936,34.1693333 34.816,58.8493333 34.816,58.8493333 L43.8693333,58.8493333 L43.8693333,43.6386667 C43.8693333,42.8266667 43.928,42.0133333 44.168,41.432 C44.8213333,39.8053333 46.3106667,38.1213333 48.8106667,38.1213333 C52.088,38.1213333 53.3973333,40.6186667 53.3973333,44.2786667 L53.3973333,58.8506667 L62.4493333,58.8506667 L62.4493333,58.8493333 Z M25.2786667,27.896 C28.4346667,27.896 30.4013333,25.8026667 30.4013333,23.188 C30.3426667,20.5173333 28.4346667,18.484 25.3386667,18.484 C22.2426667,18.484 20.2173333,20.516 20.2173333,23.188 C20.2173333,25.8026667 22.1826667,27.896 25.2213333,27.896 L25.2786667,27.896 Z M40,80 C17.9093333,80 0,62.0906667 0,40 C0,17.908 17.9093333,0 40,0 C62.0906667,0 80,17.908 80,40 C80,62.0906667 62.0906667,80 40,80 Z M29.8053333,58.8493333 L29.8053333,31.6133333 L20.7533333,31.6133333 L20.7533333,58.8493333 L29.8053333,58.8493333 Z" id="Shape"></path>
        </g>
    </g>
</svg>
